communes/2856.svg

<?xml version="1.0" encoding="UTF-8"?>
<svg width="525" height="612" version="1.1" viewBox="0 0 350 408" xmlns="http://www.w3.org/2000/svg" xmlns:cc="http://creativecommons.org/ns#" xmlns:dc="http://purl.org/dc/elements/1.1/" xmlns:rdf="http://www.w3.org/1999/02/22-rdf-syntax-ns#">
<metadata>
<rdf:RDF>
<cc:Work rdf:about="">
<dc:format>image/svg+xml</dc:format>
<dc:type rdf:resource="http://purl.org/dc/dcmitype/StillImage"/>
</cc:Work>
</rdf:RDF>
</metadata>
<title>Wappen von Ormalingen</title>
<desc>Wappen der Schweizer Gemeinde Ormalingen, Kanton Baselland</desc>
<g stroke="#000" stroke-width="4">
<path d="m348 2v231a173 173 0 0 1-346 0v-231" fill="#0056ad"/>
<path d="m2 2h346v202h-346z" fill="#ffd400"/>
<path d="m175 15 22.5 49 53.5-5-31 44 31 44-53.5-5-22.5 49-22.5-49-53.5 5 31-44-31-44 53.5 5z" fill="#e2001a"/>
</g>
</svg>

<?xml version="1.0" encoding="UTF-8" standalone="no"?>
<svg
   xmlns:dc="http://purl.org/dc/elements/1.1/"
   xmlns:cc="http://creativecommons.org/ns#"
   xmlns:rdf="http://www.w3.org/1999/02/22-rdf-syntax-ns#"
   xmlns:svg="http://www.w3.org/2000/svg"
   xmlns="http://www.w3.org/2000/svg"
   xmlns:sodipodi="http://sodipodi.sourceforge.net/DTD/sodipodi-0.dtd"
   xmlns:inkscape="http://www.inkscape.org/namespaces/inkscape"
   version="1.1"
   width="525"
   height="612"
   viewBox="0 0 350 408"
   id="svg14"
   sodipodi:docname="2856.svg">
  <metadata
     id="metadata20">
    <rdf:RDF>
      <cc:Work
         rdf:about="">
        <dc:format>image/svg+xml</dc:format>
        <dc:type
           rdf:resource="http://purl.org/dc/dcmitype/StillImage" />
      </cc:Work>
    </rdf:RDF>
  </metadata>
  <defs
     id="defs18" />
  <sodipodi:namedview
     pagecolor="#ffffff"
     bordercolor="#666666"
     borderopacity="1"
     objecttolerance="10"
     gridtolerance="10"
     guidetolerance="10"
     inkscape:pageopacity="0"
     inkscape:pageshadow="2"
     inkscape:window-width="640"
     inkscape:window-height="480"
     id="namedview16" />
  <title
     id="title2">Wappen von Ormalingen</title>
  <desc
     id="desc4">Wappen der Schweizer Gemeinde Ormalingen, Kanton Baselland</desc>
  <g
     stroke="black"
     stroke-width="4"
     id="g12">
    <path
       d="M 348,2 V 233 A 173 173 0 0 1 2,233 V 2"
       fill="#0056ad"
       id="path6" />
    <path
       d="M 2,2 H 348 V 204 H 2 z"
       fill="#ffd400"
       id="path8" />
    <path
       d="M 175,15 L 197.5,64 L 251,59 L 220,103 L 251,147 L 197.5,142 L 175,191 L 152.5,142 L 99,147 L 130,103 L 99,59 L 152.5,64 z"
       fill="#e2001a"
       id="path10" />
  </g>
</svg>
